X: 790
T: Ballahaboy Fair
R: jig
B: O'Neill's 1850 "Music of Ireland" #790
Z: Stephen Foy (shf@access.digex.net)
%abc 1.6
M: 6/8
K: D
f/e/ |\
d2A AFA | BGB A2f/e/ | d2A AFA | ~g3 f2e ||\
d2A AFA | Bdg b2b/b/ | aba agf | e3 d2 :|
|: a |\
fga bag | fga bag | fga fga | efg gfe ||\
fga bag | fga baa | aba agf | e3 d2 :|
